X:4
T:Silfversparrens menuett, ur Sven Donats notbok (Ma5-4)
S:Efter Sven Donat
R:Menuett
O:Småland
N:MA5, låt 4, sida 6
B:Sven Donats notbok
N:Se SMUS MA5-4
Z:Jonas Brunskog
Q:1/4=140
M: 3/4
L: 1/8
K: D
|:d2d2d2|d2 DEFG|A2 A2 A2|A2 A,CEF|G2 G2 G2|GBAGFE|DE F2 E2|D6:|
|:E2 E2E2|E2 A,CEG|F2 F2 F2|F6|B2 B2 B2|B3 cde|f2 F2 F2|F4 bf|g2 gfge|f2 e2 dc|
Bc c2 c2|B4 (3ABc|d2 d2 d2|d3 f b2|B2 B2 B2|B4 bf|g2 gf ge|f2 fe dc|Bc e2 c2|d6:|

